!!!!SEGMENT: pl-kk--kk-i-15--020_anonim--kyrie.krn
!!!cenid: 16xx:1137
!!!COM: Anonim
!!!COM-rismID: pe30004985
!!!CDT:
!!!CNT:
!!!OTL: Kyrie
!!!PDT:
!!!AGN: Sacred
!!!SMS-siglum: PL-Kk
!!!SMS-shelfmark: Kk.I.15
!!!SMS-shelfwork: 020 W
!!!SMS-variant:
!!!SMS-altvar:
!!!NIFC-rismSourceID: 1001147855
!!!NIFC-islandoraID: pl-kk:2631
!!!URL-pdf-islandora: https://repozytorium.nifc.pl/islandora/object/pl-kk%3A2631/datastream/PDF/view
!!!URL-scan: https://polish.musicsources.pl/pl/lokalizacje/galeria/rekopisy/5777 @EN{Scan on Polish Music Herritage in Open Access Website} @PL{Skany w portalu Dziedzictwo Muzyki Polskiej w otwartym dostępie}
!!!ONB-nifc: UWAGA: C (skan 0012-0013), A (skan 0030), T (skan 0047), B (skan 0065). Następny utwór: Tollite portas
!!!AIN: 1 alto 1 empty 1 tenor 1 vox
!!!key:
**kern	**text	**kern	**text	**kern	**text	**kern	**text
*part4	*part4	*part3	*part3	*part2	*part2	*part1	*part1
*staff4	*staff4	*staff3	*staff3	*staff2	*staff2	*staff1	*staff1
*Iempty	*	*Itenor	*	*Ialto	*	*Ivox	*
*I"Baſso	*	*I"Tenore.	*	*I"Alto	*	*I"Canto.	*
*I'B	*	*I'T	*	*I'A	*	*I'S	*
*clefF4	*	*clefC4	*	*clefC4	*	*clefC3	*
*k[b-]	*	*k[b-]	*	*k[b-]	*	*k[b-]	*
*F:	*	*F:	*	*F:	*	*F:	*
*M2/1	*	*M2/1	*	*M2/1	*	*M2/1	*
*met(C)	*	*met(C)	*	*met(C)	*	*met(C)	*
=1-	=1-	=1-	=1-	=1-	=1-	=1-	=1-
1F	Ky-	1c	Ky-	1c	Ky-	1f	Ky-
1D	-ri-	2B-\	-ri-	2B-/	-ri-	2f\	-ri-
.	.	2.A/	.	2.A/	-e	4e\	.
.	.	.	.	.	.	4d\	.
!	!	!	!	!	!	!LO:LB:g=original	!
=2-	=2-	=2-	=2-	=2-	=2-	=2-	=2-
*lig	*	*	*	*	*	*	*
1F	-e	.	.	.	.	2c/	.
.	.	4G/	.	4G/	e-	.	.
.	.	1F	.	1F	-ley-	1d	-e
1G	.	.	.	.	.	.	.
.	.	2E/	.	2E/	-son	4c/	.
.	.	.	.	.	.	4B-/	.
*Xlig	*	*	*	*	*	*	*
=3-	=3-	=3-	=3-	=3-	=3-	=3-	=3-
1A	.	1.F	-e	1F	Ky-	4A/	.
.	.	.	.	.	.	4G/	.
.	.	.	.	.	.	2F/	.
1B-	.	.	.	1D	-ri-	2f\	e-
.	.	2.f\	e-	.	.	4e\	.
.	.	.	.	.	.	4d\	.
!LO:LB:g=original	!	!	!	!	!	!	!
=4-	=4-	=4-	=4-	=4-	=4-	=4-	=4-
*	*	*	*	*lig	*	*	*
1A	.	.	.	1F	-e	2c/	-lei-
.	.	4e\	.	.	.	.	.
.	.	4d\	.	.	.	1f	.
.	.	4c\	.	.	.	.	.
1G	.	1B-	.	1G	.	.	.
.	.	.	.	.	.	2e\	.
*	*	*	*	*Xlig	*	*	*
!	!	!	!	!LO:LB:g=original	!	!	!
=5-	=5-	=5-	=5-	=5-	=5-	=5-	=5-
2F\	.	4A\	.	1A	.	2f\	-ſon
.	.	4G\	.	.	.	.	.
*	*	*	*	*	*	*	*ij
1D	.	1A	.	.	.	1F	Ky-
.	.	.	.	1B-	.	.	.
2E\	.	2.G/	.	.	.	2G/	-ri-
=6-	=6-	=6-	=6-	=6-	=6-	=6-	=6-
*	*	*	*	*lig	*	*	*
2.F\	.	.	.	1A	.	2.A/	-e
.	.	4F/	.	.	.	.	.
.	.	1F	-ley-	.	.	.	.
4E\	.	.	.	.	.	4B-/	.
1C	.	.	.	1G	.	1c	.
.	.	2E/	-ſon	.	.	.	.
*	*	*	*	*Xlig	*	*	*
=7-	=7-	=7-	=7-	=7-	=7-	=7-	=7-
*	*	*	*	*lig	*	*	*
2.D/	.	2F/	e-	1F	.	2A/	e-
.	.	2.D/	.	.	.	2.d/	-lei-
4C/	.	.	.	.	.	.	.
*	*	*	*	*col	*	*	*
1BB-	.	.	.	2.D/	.	.	.
.	.	4E/	.	.	.	4e\	.
.	.	4F/	.	.	.	1f\	-ſon
*	*	*	*	*Xlig	*	*	*
.	.	4G/	.	4E/	.	.	.
*	*	*	*	*Xcol	*	*	*
=8-	=8-	=8-	=8-	=8-	=8-	=8-	=8-
2AA/	.	2A\	.	2F/	.	.	.
2GG/	.	2B-\	.	2.G/	.	4e\	Ky-
.	.	.	.	.	.	4d\	-ri-
2C/	.	2c\	.	.	.	2c/	-e
.	.	.	.	4A\	.	.	.
2BB-/	.	2F/	.	2B-\	.	2d/	.
=9-	=9-	=9-	=9-	=9-	=9-	=9-	=9-
2C/	e-	2c\	.	2A/	e-	2e\	e-
2D/	-ley-	2B-\	-ley-	2F/	-ley-	1f	-lei-
1C	.	1c	.	1G	.	.	.
.	.	.	.	.	.	2e\	.
=10-	=10-	=10-	=10-	=10-	=10-	=10-	=10-
0FFl;;	-ſon	0cl;;	-ſon	0Fl;;	-ſon	0fl;;	-ſon
*	*	*	*	*	*	*	*Xij
!	!	!LO:LB:g=original	!	!	!	!LO:LB:g=original	!
=11||	=11||	=11||	=11||	=11||	=11||	=11||	=11||
*k[b-]	*	*k[b-]	*	*k[b-]	*	*k[b-]	*
*M2/1	*	*M2/1	*	*M2/1	*	*M2/1	*
*met(C)	*	*met(C)	*	*met(C)	*	*met(C)	*
*	*	*lig	*	*lig	*	*	*
2.F\	Chri-	1F	Chri-	1F	Chri-	1f	Chri-
4E\	.	.	.	.	.	.	.
2D\	.	1c	.	1c	.	2e\	-ſte
2F\	.	.	.	.	.	2f\	.
*	*	*Xlig	*	*Xlig	*	*	*
=12-	=12-	=12-	=12-	=12-	=12-	=12-	=12-
*	*	*lig	*	*lig	*	*	*
2E\	.	1c	-ſte	1c	-ſte	2g\	.
2A\	.	.	.	.	.	2c/	.
1G	.	1B-	.	1B-	.	2d/	.
.	.	.	.	.	.	2e\	.
*	*	*Xlig	*	*Xlig	*	*	*
=13-	=13-	=13-	=13-	=13-	=13-	=13-	=13-
1F	.	2c\	.	2.A/	.	2c/	e-
.	.	4B-\	.	.	.	4B-/	.
.	.	4A\	.	4B-\	.	4A/	.
!LO:PB:g=original	!	!	!	!	!	!	!
2E\	.	2G/	.	2G/	.	2c\	.
2D/	.	2F/	.	2F/	.	1d\	-lei-
=14-	=14-	=14-	=14-	=14-	=14-	=14-	=14-
2E\	.	2G/	e-	2E/	e-	.	.
2F\	.	2.A/	.	2F/	.	1c	-ſon
1D	.	.	.	1D	-ley-	.	.
.	.	4G/	.	.	.	.	.
*	*	*	*	*	*	*	*ij
.	.	1F/	-ley-	.	.	2B-/	e-
!	!	!	!	!LO:LB:g=original	!	!	!
=15-	=15-	=15-	=15-	=15-	=15-	=15-	=15-
2C/	-ſte	.	.	1C	-ſon	2.c/	-lei-
1FF	Chri-	4E/	.	.	.	.	.
.	.	4D/	.	.	.	4B-/	.
.	.	2C/	-ſon	2c\	e-	4A/	.
.	.	.	.	.	.	4G/	.
*	*	*	*ij	*	*	*	*
1.C/	.	1c\	Chri-	1A\	-ley-	1A/	-ſon
=16-	=16-	=16-	=16-	=16-	=16-	=16-	=16-
.	.	.	.	.	.	.	.
.	.	4B-\	.	4G/	.	2rB	.
.	.	4A\	.	4F/	.	.	.
1C	-ſte	1G	-ſte	1.E	-son	2.c\	Chri-
.	.	.	.	.	.	4d\	.
=17-	=17-	=17-	=17-	=17-	=17-	=17-	=17-
2C/	.	2A/	e-	.	.	2e\	.
1.BB-	.	1B-	-ley-	1F	Chri-	2d\	.
.	.	.	.	.	.	2.d\	-ſte
.	.	2G/	.	2G/	.	.	.
.	.	.	.	.	.	4e\	.
=18-	=18-	=18-	=18-	=18-	=18-	=18-	=18-
1AA	.	2C/	ſon	1A	-ſte	2f\	.
.	.	2c\	e-	.	.	2e\	.
!	!	!	!	!	!	!LO:TX:t=P:problem=urwany skan	!
2AA/	.	2A/	.	2A/	e-	2c/	e-
!	!	!	!	!	!	!LO:PB:g=original	!
1.BB-/	.	1F/	-ley-	1F/	.	2.d\	.
=19-	=19-	=19-	=19-	=19-	=19-	=19-	=19-
.	.	.	.	.	.	.	.
.	.	.	.	.	.	4c/	.
.	.	4E/	.	4E/	.	4B-/	.
.	.	4D/	.	4D/	.	4A/	.
1C	.	2E/	.	2E/	.	4G/	.
.	.	.	.	.	.	2c\	.
.	.	1c\	.	2.A/	.	.	.
.	.	.	.	.	.	4d\	.
=20-	=20-	=20-	=20-	=20-	=20-	=20-	=20-
2C/	.	.	.	.	.	2e\	-lei-
.	.	.	.	4G/	.	.	.
1.D	.	4B-\	.	4F/	.	2f\	.
.	.	4A\	.	4E/	.	.	.
!	!	!LO:LB:g=original	!	!	!	!	!
.	.	1B-	.	1F	-ley-	1d	-ſon
=21-	=21-	=21-	=21-	=21-	=21-	=21-	=21-
1.C	.	2G/	-ſon	1.C	-son	2.g\	Chri-
.	.	2.g\	Chri-	.	.	.	.
.	.	.	.	.	.	4f\	.
.	.	.	.	.	.	4e\	.
.	.	4f\	.	.	.	4d\	.
1AA/	.	4e\	.	2.c\	e-	1c\	-ſte
.	.	4d\	.	.	.	.	.
=22-	=22-	=22-	=22-	=22-	=22-	=22-	=22-
.	.	1c	-ſte	.	.	.	.
*	*	*	*Xij	*	*	*	*
.	.	.	.	4B-\	.	.	.
2AA/	.	.	.	4A\	.	2c/	e-
.	.	.	.	4G\	.	.	.
1.BB-	.	1.d	chri-	1F	.	1d	.
=23-	=23-	=23-	=23-	=23-	=23-	=23-	=23-
.	.	.	.	2G/	.	2G/	.
1AA	.	2.A/	-ſte	[1C	.	1.c	.
.	.	4G/	.	.	.	.	.
2AA/	.	1F/	e-	2C]	.	.	.
=24-	=24-	=24-	=24-	=24-	=24-	=24-	=24-
1GG	.	.	.	2D/	.	1B-	.
.	.	2E/	-ley-	2E/	.	.	.
2FF/	.	0F	-ſon	2C/	.	2.A/	-lei-
1F\	e-	.	.	2.D/	.	.	.
.	.	.	.	.	.	4B-/	.
=25-	=25-	=25-	=25-	=25-	=25-	=25-	=25-
.	.	.	.	.	.	1c	-ſon
.	.	.	.	4E/	.	.	.
4E\	.	.	.	2F/	.	.	.
4D\	.	.	.	.	.	.	.
!LO:LB:g=original	!	!	!	!	!	!	!
2E\	.	2r	.	2G/	.	2r	.
*	*	*	*ij	*	*	*	*
!	!	!	!	!LO:LB:g=original	!	!	!
2F\	.	2c\	Chri-	2A/	.	2.f\	Chri-
=26-	=26-	=26-	=26-	=26-	=26-	=26-	=26-
1C	-ley-	2.c\	-ſte	1G	.	.	.
.	.	.	.	.	.	4d\	.
.	.	.	.	.	.	2e\	.
.	.	4B-\	.	.	.	.	.
2FF/	-ſon	2A/	.	2F/	.	2d\	.
1C/	e-	2G/	.	2E/	.	2c/	-ſte
=27-	=27-	=27-	=27-	=27-	=27-	=27-	=27-
.	.	2A/	.	2F/	.	2r	.
4BB-/	.	2.B-/	e-	2.G/	.	2.d/	e-
4AA/	.	.	.	.	.	.	.
2BB-/	.	.	.	.	.	.	.
.	.	4A/	.	4F/	.	4c/	.
2C/	.	4G/	.	2E/	.	2.c/	.
.	.	4F/	.	.	.	.	.
=28-	=28-	=28-	=28-	=28-	=28-	=28-	=28-
1GG	.	2.G/	-ley-	1D	-ley-	.	.
.	.	.	.	.	.	4A/	.
.	.	.	.	.	.	2B-/	-lei-
.	.	4F/	.	.	.	.	.
2AA/	.	2E/	-ſon	2C/	-son	2c/	.
!	!	!	!	!	!	!LO:LB:g=original	!
1BB-/	.	2D/	Chri-	2.G/	Chri-	4B-/	.
.	.	.	.	.	.	4A/	.
=29-	=29-	=29-	=29-	=29-	=29-	=29-	=29-
.	.	2E/	.	.	.	2G/	-ſon
.	.	.	.	4F/	.	.	.
2AA/	.	2F/	.	1F	-ſte	2A/	Chri-
1GG	.	1G	-ſte	.	.	2.B-/	-ſte
.	.	.	.	2E/	.	.	.
.	.	.	.	.	.	4c/	.
=30-	=30-	=30-	=30-	=30-	=30-	=30-	=30-
2FF/	.	2.A/	.	2.F/	e-	2d/	.
1F	.	.	.	.	.	4c/	.
.	.	4B-\	.	4G/	.	4B-/	.
!	!	!LO:TX:t=P:problem=dwie kolejne półnuty dopisane delikatnie	!	!	!	!	!
.	.	2c\	.	4A\	.	4A/	.
.	.	.	.	4B-\	.	4G/	.
2E\	.	2G/	e-	1c\	.	2.g\	e-
=31-	=31-	=31-	=31-	=31-	=31-	=31-	=31-
1D	-ley-	2A/	-ley-	.	.	.	.
.	.	.	.	.	.	4f\	.
.	.	2B-/	.	2B-\	-ley-	1f	.
1C	.	1G	.	1c	.	.	.
.	.	.	.	.	.	2e\	.
=32-	=32-	=32-	=32-	=32-	=32-	=32-	=32-
[0FFl;;	-ſon	00F	-ſon	[0Al;;	-son	2.f\	-lei-
*	*	*	*Xij	*	*	*	*
.	.	.	.	.	.	4e\	.
.	.	.	.	.	.	2d/	.
.	.	.	.	.	.	2c/	.
=33-	=33-	=33-	=33-	=33-	=33-	=33-	=33-
0FF]	.	.	.	0A]	.	0cl;;	-ſon
*	*	*	*	*	*	*	*Xij
=34||	=34||	=34||	=34||	=34||	=34||	=34||	=34||
*M2/1	*	*M2/1	*	*M2/1	*	*M2/1	*
*met(C)	*	*met(C)	*	*met(C)	*	*met(C)	*
*lig	*	*	*	*	*	*	*
1FF	Ky-	1c	Ky-	4F/	Ky-	4F/	Ky-
.	.	.	.	4G/	.	4G/	.
.	.	.	.	4A\	.	4A/	.
*	*	*	*	*custos:c	*	*	*
.	.	.	.	4B-\	.	4B-/	.
!	!	!	!	!LO:PB:g=original	!	!	!
1C	.	2c\	-ri-	4c\	.	4c\	.
.	.	.	.	4d\	.	4d\	.
.	.	4B-\	.	2.c\	-ri-	2.c/	-ri-
.	.	4A\	.	.	.	.	.
*Xlig	*	*	*	*	*	*	*
=35-	=35-	=35-	=35-	=35-	=35-	=35-	=35-
1C	-ri-	2G/	.	.	.	.	.
.	.	.	.	4B-\	.	4B-/	.
.	.	2.A/	.	4A\	.	4A/	.
.	.	.	.	4G\	.	4G/	.
0D	-e	.	.	1.F	-e	1F	-e
.	.	4G/	.	.	.	.	.
.	.	1F/	-e	.	.	.	.
=36-	=36-	=36-	=36-	=36-	=36-	=36-	=36-
*	*	*	*	*	*	*lig	*
.	.	.	.	.	.	1F	e-
.	.	2F/	e-	4E/	.	.	.
.	.	.	.	4D/	.	.	.
1C	.	1G	-ley-	1E	.	1c	.
*	*	*	*	*	*	*Xlig	*
!	!	!	!	!	!	!LO:LB:g=original	!
=37-	=37-	=37-	=37-	=37-	=37-	=37-	=37-
2.F\	[e-]	2.A/	.	2F/	.	1c	.
.	.	.	.	4D/	e-	.	.
4E\	.	4G/	.	4E/	.	.	.
!LO:LB:g=original	!	!	!	!	!	!	!
2D/	.	4F/	.	4F/	.	0d	.
.	.	4E/	.	4G/	.	.	.
2C/	.	1E/	.	1A\	.	.	.
=38-	=38-	=38-	=38-	=38-	=38-	=38-	=38-
1BB-	ley-	.	.	.	.	.	.
.	.	2G/	.	2D/	.	.	.
1AA	-son	2A/	.	2E/	.	1c	.
.	.	1c\	.	2F/	-ley-	.	.
=39-	=39-	=39-	=39-	=39-	=39-	=39-	=39-
*	*	*	*	*	*	*lig	*
1rC	.	.	.	1D	-ſon	1f	.
.	.	2B-\	-ſon	.	.	.	.
2rC	.	1c	chri-	2C/	.	1e	.
*	*ij	*	*	*	*	*	*
1C/	Ky-	.	.	2c\	e-	.	.
*	*	*	*	*	*	*Xlig	*
=40-	=40-	=40-	=40-	=40-	=40-	=40-	=40-
.	.	1d	.	2A/	-ley-	2d\	.
2BB-/	-ri-	.	.	2B-\	.	1f	.
1C	-e	1c	.	0G	.	.	.
.	.	.	.	.	.	2e\	.
!	!	!LO:LB:g=original	!	!	!	!	!
=41-	=41-	=41-	=41-	=41-	=41-	=41-	=41-
*lig	*	*	*	*	*	*	*
1GG	.	1B-	-ſte	.	.	2d\	-ley-
.	.	.	.	.	.	4g\	.
.	.	.	.	.	.	4f\	.
1AA	.	1c	e-	1C	-ſon	4e\	.
.	.	.	.	.	.	4d\	.
.	.	.	.	.	.	1c\	.
*Xlig	*	*	*	*	*	*	*
=42-	=42-	=42-	=42-	=42-	=42-	=42-	=42-
*	*	*lig	*	*	*	*	*
2GG/	.	1d	.	2c\	Ky-	.	.
2G\	[e-]	.	.	1d	-ri-	2B-/	.
2E\	.	1c	.	.	.	1c	-ſon
2.F\	-ley-	.	.	1c\	-e	.	.
*	*	*Xlig	*	*	*	*	*
=43-	=43-	=43-	=43-	=43-	=43-	=43-	=43-
.	.	2.A/	.	.	.	2r	.
4E\	.	.	.	.	.	.	.
*	*	*	*	*	*	*	*ij
2D/	.	.	.	2.F/	e-	2f\	Ky-
.	.	4B-\	.	.	.	.	.
2C/	.	2c\	.	.	.	2e\	-ri-
.	.	.	.	4G/	.	.	.
2BB-/	.	2d\	.	2A/	.	2d\	-e
=44-	=44-	=44-	=44-	=44-	=44-	=44-	=44-
0C	-ſon	2G/	-ley-	2D/	.	2.g\	e-
*	*Xij	*	*	*	*	*	*
.	.	2c\	-son	2E/	.	.	.
.	.	.	.	.	.	4f\	.
*	*	*	*ij	*	*	*	*
.	.	2.c\	Ky-	2C/	.	4e\	.
.	.	.	.	.	.	4d\	.
!	!	!	!	!LO:TX:t=P:problem=urwany skan, zapis prawdopodobny	!	!	!
.	.	.	.	8D/yy	.	2c/	.
.	.	.	.	8C/yy	.	.	.
.	.	4B-\	.	8BB-/yy	.	.	.
.	.	.	.	8AA/yy	.	.	.
!	!	!	!	!LO:LB:g=original	!	!	!
=45-	=45-	=45-	=45-	=45-	=45-	=45-	=45-
2rC	.	2A/	-ri-	2F/	.	2d/	.
2C/	Ky-	2G/	.	2E/	.	1c	-ley-
2D/	-ri-	1F	-e	1D	-ley-	.	.
1F\	.	.	.	.	.	2B-/	.
=46-	=46-	=46-	=46-	=46-	=46-	=46-	=46-
!	!	!	!	!	!	!LO:TX:t=P:problem=kreska pseudotaktowa	!
.	.	1G	.	1C	-ſon	0c	-ſon
2E\	.	.	.	.	.	.	.
2F\	-e	2F/	.	2rF	.	.	.
*	*	*	*	*	*ij	*	*
2c\	e-	2A/	.	2F/	Ky-	.	.
=47-	=47-	=47-	=47-	=47-	=47-	=47-	=47-
2B-\	.	2G/	.	2G/	-ri-	2r	.
2A\	.	1F	.	2A/	-e	2c/	e-
1G	-ley-	.	.	2.B-\	e-	2d\	.
.	.	2E/	.	.	.	2e\	.
.	.	.	.	4A\	.	.	.
=48-	=48-	=48-	=48-	=48-	=48-	=48-	=48-
*	*	*	*	*	*	*custos:e	*
1F	-ſon	1D	.	2F/	-ley-	2f\	-ley-
!	!	!	!	!	!	!LO:LB:g=original	!
.	.	.	.	2A/	.	2e\	.
1rE	.	2C/	.	2G/	-ſon	2c/	-ſon
.	.	1c\	Ky-	1c\	Ky-	2.e\	Ky-
=49-	=49-	=49-	=49-	=49-	=49-	=49-	=49-
2r	.	.	.	.	.	.	.
.	.	.	.	.	.	4d\	.
*	*ij	*	*	*	*	*	*
!LO:TX:a:t=g	!	!	!	!	!	!	!
2G\ 2E	Ky-	2d\	-ri-	2d\	-ri-	2.g\	-ri-
!LO:LB:g=original	!	!	!	!	!	!	!
2.G\	-ri-	1B-	.	1B-	-e	.	.
.	.	.	.	.	.	4f\	.
.	.	.	.	.	.	4e\	.
4F\	.	.	.	.	.	4d\	.
=50-	=50-	=50-	=50-	=50-	=50-	=50-	=50-
2E/	-e	2c\	-e	1c	e-	2c/	-e
2C/	e-	2.c\	e-	.	.	2.g\	e-
*	*	*	*	*lig	*	*	*
1D	-ley-	.	.	1F	-ley-	.	.
.	.	4A\	.	.	.	4f\	.
.	.	2B-\	-ley-	.	.	1f\	-ley-
=51-	=51-	=51-	=51-	=51-	=51-	=51-	=51-
1C	.	1c	.	1G	.	.	.
.	.	.	.	.	.	2e\	.
*	*	*	*	*Xlig	*	*	*
0.FFl;;	-ſon	0.cl;;	-ſon	0.Fl;;	-ſon	0.fl;;	-ſon
*	*Xij	*	*Xij	*	*Xij	*	*Xij
==	==	==	==	==	==	==	==
*-	*-	*-	*-	*-	*-	*-	*-
!!!system-decoration: [s1,s2,s3,s4]
!!!RDF**kern: < = below
!!!RDF**kern: l = terminal long
!!!ENC: Marta Lawrence
!!!END: 2021-03-27
!!!ENC: Andrzej Gręziak
!!!END: 2021-03-22
